X: 1
T: Knockinelder Bay
M: 4/4
L: 1/8
R: reel
K: Gmaj
D|:G3A ABBc|A3G BGED|G3A ABBc|dBcA BGGF:|
|:B3g fgaf|g2fd edBA|1 B3g fgaf|
bfaf gfed:|2 B3g fgfe|dBcA BGGF|
